!!!COM: Palestrina, Giovanni Perluigi da
!!!OPR: Missa Inviolata
!!!OTL: Sanctus
**kern	**kern	**kern	**kern
*Ibass	*Itenor	*Icalto	*Icant
!Bassus	!Tenor	!Altus	!Cantus
*clefF4	*clefGv2	*clefG2	*clefG2
*k[b-]	*k[b-]	*k[b-]	*k[b-]
*F:ion	*F:ion	*F:ion	*F:ion
*M4/2	*M4/2	*M4/2	*M4/2
=1	=1	=1	=1
0r	0r	1r	0f
.	.	1F	.
=2	=2	=2	=2
0r	0r	2.B-	1f
.	.	4c	.
.	.	4d	1f
.	.	4e	.
.	.	[2f	.
=3	=3	=3	=3
0r	1r	2f]	0g
.	.	4e	.
.	.	4d	.
.	1C	1e	.
=4	=4	=4	=4
1r	2.F	2.f	0a
.	4G	8e	.
.	.	8d	.
1FF	4A	1c	.
.	4B-	.	.
.	4c	.	.
.	4A	.	.
=5	=5	=5	=5
2.BB-	1.d	2.B-	1b-
4C	.	8A	.
.	.	8G	.
4D	.	4F	1a
4E	.	4G	.
[2F	2c	4A	.
.	.	4B-	.
=6	=6	=6	=6
2F]	1r	1c	0g
4E	.	.	.
4D	.	.	.
1E	1C	2r	.
.	.	[2c	.
=7	=7	=7	=7
0F	2.F	2c]	0a
.	.	1f	.
.	4G	.	.
.	4A	.	.
.	4B-	.	.
.	[2c	2e	.
=8	=8	=8	=8
0G	2c]	0d	0g
.	4B-	.	.
.	4A	.	.
.	1B	.	.
=9	=9	=9	=9
2A	2c	1r	[0f
1B-	2d	.	.
.	1c	1F	.
2A	.	.	.
=10	=10	=10	=10
1B-	0d	2.B-	0f]
.	.	4c	.
1BB-	.	4d	.
.	.	4e	.
.	.	[2f	.
=11	=11	=11	=11
1r	0c	2f]	0g
.	.	4e	.
.	.	4d	.
1C	.	1e	.
=12	=12	=12	=12
2.F	0r	2.A	[0f
4G	.	4B-	.
2A	.	2c	.
[2B-	.	2d	.
=13	=13	=13	=13
2B-]	1F	1c	1f]
2A	.	.	.
[1G	2.B-	1d	[1g
.	4c	.	.
=14	=14	=14	=14
1G]	2d	1B-	1g]
.	2e	.	.
1F	1f	1c	[1a
=15	=15	=15	=15
2r	2.c	1A	0a]
2.F	.	.	.
.	4c	.	.
.	2c	2.f	.
4F	.	.	.
2F	2d	.	.
.	.	4e	.
=16	=16	=16	=16
2G	2B-	2d	0r
2E	1c	2c	.
2F	.	[1d	.
[2G	2B-	.	.
=17	=17	=17	=17
2G]	1A	1d]	0r
1F	.	.	.
.	1G	2r	.
2E	.	[2c	.
=18	=18	=18	=18
1F	1A	4c]	2r
.	.	4c	.
.	.	2c	2.f
1r	1B-	1d	.
.	.	.	4f
.	.	.	2f
=19	=19	=19	=19
2r	1G	2B-	2g
2C	.	1c	2e
2D	1r	.	2f
2E	.	2B-	[2g
=20	=20	=20	=20
1F	2r	1A	2g]
.	2.c	.	1f
1C	.	1G	.
.	4c	.	.
.	2c	.	2e
=21	=21	=21	=21
1BB-	2d	1B-	0f
.	2B-	.	.
1F	2c	1A	.
.	[2d	.	.
=22	=22	=22	=22
2G	2d]	2B	2r
2C	1c	2c	2.g
1G	.	1d	.
.	.	.	4g
.	2B	.	2g
=23	=23	=23	=23
1F	1c	2r	2a
.	.	2.c	2f
1r	2r	.	2g
.	.	4c	.
.	2F	2c	[2a
=24	=24	=24	=24
1r	2F	2d	2a]
.	2G	2B-	1g
2r	1A	2c	.
2D	.	[2d	2f#
=25	=25	=25	=25
2E-	2G	2d]	0g
2C	2c	1c	.
1G	2d	.	.
.	2e	2B-	.
=26	=26	=26	=26
1F	2.f	2c	2r
.	.	1f	2.a
.	4e	.	.
1r	2d	.	.
.	.	.	4a
.	2c	2e	2a
=27	=27	=27	=27
1r	2.B-	[0d	2b-
.	.	.	2g
.	4A	.	.
2r	2F	.	2a
2G	2G	.	[2b-
=28	=28	=28	=28
2G	1D	1d]	2b-]
2F	.	.	1a
1B-	2.d	2r	.
.	.	2d	2g
.	4e	.	.
=29	=29	=29	=29
1A	2f	2d	[0a
.	2e	2c	.
1D	1d	2.f	.
.	.	4e	.
=30	=30	=30	=30
2.F	1r	2d	1a]
.	.	2c	.
4E	.	.	.
2D	2r	2B-	1r
2C	2G	2c	.
=31	=31	=31	=31
2.D	2G	1A	1r
.	2F	.	.
4C	.	.	.
2BB-	1B-	1G	2r
2GG	.	.	2g
=32	=32	=32	=32
1D	1A	2r	2g
.	.	1d	2f
1r	2.G	.	2.b-
.	.	[2G	.
.	4A	.	4a
=33	=33	=33	=33
0r	4B-	4G]	2g
.	4c	4A	.
.	2.d	2B-	2f
.	.	2c	2e
.	4c	.	.
.	[2c	2F	2f
=34	=34	=34	=34
1r	2c]	1G	1d
.	2B	.	.
2r	2.c	2.A	1c
2F	.	.	.
.	4B-	4B-	.
=35	=35	=35	=35
2F	2A	[0c	1r
2E	2G	.	.
2.A	1F	.	2r
.	.	.	2f
4G	.	.	.
=36	=36	=36	=36
2A	1C	0c]	2f
2.G	.	.	2e
.	1r	.	2.a
4F	.	.	.
[2F	.	.	.
.	.	.	4g
=37	=37	=37	=37
2F]	1c	0r	2a
2E	.	.	2.g
1F	2c	.	.
.	.	.	4f
.	[2d	.	[2f
=38	=38	=38	=38
1G	2d]	1B-	2f]
.	4c	.	2e
.	4B-	.	.
1F	1c	2B-	1f
.	.	2A	.
=39	=39	=39	=39
1BB-	2r	2.d	[0f
.	2B-	.	.
.	.	4c	.
1r	2B-	2d	.
.	2A	2c	.
=40	=40	=40	=40
2r	2.d	2.B-	0f]
2BB-	.	.	.
.	4c	8A	.
.	.	8G	.
2BB-	2d	[1F	.
2AA	[2c	.	.
=41	=41	=41	=41
1D	4c]	1F]	2r
.	4B-	.	.
.	2B-	.	2f
2.C	2A	[1c	2f
.	2G	.	2e
4BB-	.	.	.
=42	=42	=42	=42
2AA	2r	0c]	2.a
2FF	2F	.	.
.	.	.	4g
1C	2F	.	2a
.	2E	.	[2g
=43	=43	=43	=43
1FF	2.A	2r	4g]
.	.	.	4f
.	.	1c	1f
.	4G	.	.
1C	2A	.	.
.	[2G	2c	2e
=44	=44	=44	=44
2AA	4G]	2c	1f
.	4F	.	.
2BB-	1F	1d	.
1GG	.	.	1g
.	2E	4c	.
.	.	4B-	.
=45	=45	=45	=45
2FF	1F	1A	[0c
2F	.	.	.
2F	1C	1G	.
2E	.	.	.
=46	=46	=46	=46
2.A	2r	1F	0c]
.	2F	.	.
4G	.	.	.
2A	2F	[1c	.
[2G	2E	.	.
=47	=47	=47	=47
4G]	2.A	2c]	2r
4F	.	.	.
2F	.	2c	2f
.	4G	.	.
2C	2A	1c	2f
2C	[2G	.	2e
=48	=48	=48	=48
2AA	4G]	0c	2.a
.	4F	.	.
2FF	1F	.	.
.	.	.	4g
1C	.	.	2a
.	2E	.	[2g
=49	=49	=49	=49
2.FF	0A	[0c	4g]
.	.	.	4f
.	.	.	1f
4GG	.	.	.
2.AA	.	.	.
.	.	.	4e
4BB-	.	.	4d
=50	=50	=50	=50
0C	0A	0c]	0e
=51	=51	=51	=51
0F	0c	0f	0a
=52	=52	=52	=52
1G	0B-	1d	0g
1E-	.	1e-	.
=53	=53	=53	=53
0F	1A	1c	1f
.	1c	[1f	[1a
=54	=54	=54	=54
1D	1d	1f]	1a]
1E-	1B-	[1e-	[1g
=55	=55	=55	=55
1C	1c	1e-]	1g]
1D	1A	[1d	[1f
=56	=56	=56	=56
0BB-	0B-	0d]	1f]
.	.	.	1g
=57	=57	=57	=57
1C	1G	0c	1e
1AA	1A	.	1f
=58	=58	=58	=58
1BB-	1F	1B-	0d
1GG	1G	1B-	.
=59	=59	=59	=59
1AA	1E	1A	2c
.	.	.	2.cc
1FF	2r	[1c	.
.	.	.	4b-
.	[2c	.	2a
=60	=60	=60	=60
[0C	4c]	1c]	2g
.	4B-	.	.
.	2A	.	2f
.	2G	1c	2e
.	2F	.	2a
=61	=61	=61	=61
0C]	2E	0c	2g
.	2A	.	1f
.	1G	.	.
.	.	.	2e
=62	=62	=62	=62
1FF	1F	2A	2.f
.	.	2.f	.
.	.	.	4g
2r	2r	.	1a
.	.	4e	.
[2F	[2A	2d	.
=63	=63	=63	=63
4F]	4A]	2c	0r
4E	4G	.	.
2D	2F	2B-	.
2C	2E	2A	.
2BB-	2D	2G	.
=64	=64	=64	=64
1AA	1E	2.A	2r
.	.	.	2.cc
.	.	4B-	.
1FF	2r	[1c	.
.	.	.	4b-
.	[2c	.	2a
=65	=65	=65	=65
[0C	4c]	1c]	2g
.	4B-	.	.
.	2A	.	2f
.	2G	1c	2e
.	2F	.	2a
=66	=66	=66	=66
0C]	2E	0c	2g
.	2A	.	1f
.	1G	.	.
.	.	.	2e
=67	=67	=67	=67
[0FF	[0F	[0A	[0f
=68	=68	=68	=68
0FF]	0F]	0A]	0f]
==	==	==	==
*-	*-	*-	*-
!!!CDT: 1525/^1526/-1594/2/2
!!!OCY: Italia
!!!AGN: Mass (Parody)
!!!AST: renaissance, vocal
!!!ASW: Motet 1532 (Courtois)
!!!PWK: Masses, Book 2
!!!RNB: Cadence finals: C
!!!YOR: Le Opere Complete, v. 4, p. 26
!!!YOO: Rome, Italy: Fratelli Scalera
!!!END: 1992//
!!!EED: John Miller
!!!YEC: Copyright 2000, John Miller
!!!YEN: United States of America
!!!YEM: Rights to all derivative electronic formats reserved.
!!!YEM: Refer to licensing agreement for further details.
!!!YEM: This file must be accompanied by the licensing agreement.
!!!YEM: A copy of the licensing agreement may be found at http://www.music-cog.ohio-state.edu/HumdrumDatabases/Palestrina/license.txt
!!!EMD: converted to Humdrum by Bret Aarden
